lib/healthicons/icons/outline/typography/1.svg

<svg fill="none" height="48" viewBox="0 0 48 48" width="48" xmlns="http://www.w3.org/2000/svg"><path clip-rule="evenodd" d="m24.8787 9.87877c.858-.858 2.1483-1.11466 3.2694-.65032 1.121.46434 1.8519 1.55825 1.8519 2.77165v24c0 1.6568-1.3431 3-3 3s-3-1.3432-3-3v-16.7638c-1.1779 1.0553-2.9894 1.0171-4.1213-.1149-1.1716-1.1716-1.1716-3.0711 0-4.2426zm2.504 1.19743c-.3737-.1548-.8038-.0692-1.0898.2168l-5 5c-.3905.3905-.3905 1.0237 0 1.4142s1.0237.3905 1.4142 0l1.5858-1.5858c.286-.286.7161-.3715 1.0898-.2168.3737.1548.6173.5195.6173.9239v19.1716c0 .5523.4477 1 1 1s1-.4477 1-1v-24c0-.4045-.2436-.7691-.6173-.9239z" fill="#333" fill-rule="evenodd"/></svg>

<svg width="48" height="48" viewBox="0 0 48 48" fill="none" xmlns="http://www.w3.org/2000/svg">
<path fill-rule="evenodd" clip-rule="evenodd" d="M24.8787 9.87877C25.7367 9.02077 27.027 8.76411 28.1481 9.22845C29.2691 9.69279 30 10.7867 30 12.0001L30 36.0001C30 37.6569 28.6569 39.0001 27 39.0001C25.3431 39.0001 24 37.6569 24 36.0001L24 19.2363C22.8221 20.2916 21.0106 20.2534 19.8787 19.1214C18.7071 17.9498 18.7071 16.0503 19.8787 14.8788L24.8787 9.87877ZM27.3827 11.0762C27.009 10.9214 26.5789 11.007 26.2929 11.293L21.2929 16.293C20.9024 16.6835 20.9024 17.3167 21.2929 17.7072C21.6834 18.0977 22.3166 18.0977 22.7071 17.7072L24.2929 16.1214C24.5789 15.8354 25.009 15.7499 25.3827 15.9046C25.7564 16.0594 26 16.4241 26 16.8285L26 36.0001C26 36.5524 26.4477 37.0001 27 37.0001C27.5523 37.0001 28 36.5524 28 36.0001L28 12.0001C28 11.5956 27.7564 11.231 27.3827 11.0762Z" fill="#333333"/>
</svg>
